assets/icons/24px/outline/truck-24px.svg

<svg width="24" height="24" viewBox="0 0 24 24" fill="none" xmlns="http://www.w3.org/2000/svg">
<path d="M3 9C3 7.11438 3 6.17157 3.58579 5.58579C4.17157 5 5.11438 5 7 5H9C10.8856 5 11.8284 5 12.4142 5.58579C13 6.17157 13 7.11438 13 9V12C13 13.8856 13 14.8284 12.4142 15.4142C11.8284 16 10.8856 16 9 16H7C5.11438 16 4.17157 16 3.58579 15.4142C3 14.8284 3 13.8856 3 12V9Z" stroke="white" stroke-width="2"/>
<path d="M13 8H15.9076C16.861 8 17.3377 8 17.7511 8.20063C18.1646 8.40125 18.4596 8.77567 19.0496 9.52451L20.3628 11.1913C20.5685 11.4524 20.6714 11.5829 20.7499 11.7249C20.8611 11.9258 20.9368 12.1443 20.9738 12.3709C21 12.531 21 12.6972 21 13.0296V13.0296C21 13.9337 21 14.3858 20.8565 14.7439C20.6532 15.2512 20.2512 15.6532 19.7439 15.8565C19.3858 16 18.9337 16 18.0296 16H17C15.1144 16 14.1716 16 13.5858 15.4142C13 14.8284 13 13.8856 13 12V8Z" stroke="white" stroke-width="2"/>
<path d="M20 16C20 17.6569 18.6569 19 17 19C15.3431 19 14 17.6569 14 16H10C10 17.6569 8.65685 19 7 19C5.34315 19 4 17.6569 4 16" stroke="white" stroke-width="2"/>
</svg>

<svg width="24" height="24" fill="none" xmlns="http://www.w3.org/2000/svg"><path d="M3 9c0-1.886 0-2.828.586-3.414C4.172 5 5.114 5 7 5h2c1.886 0 2.828 0 3.414.586C13 6.172 13 7.114 13 9v3c0 1.886 0 2.828-.586 3.414C11.828 16 10.886 16 9 16H7c-1.886 0-2.828 0-3.414-.586C3 14.828 3 13.886 3 12V9zm10-1h2.908c.953 0 1.43 0 1.843.2.414.201.709.576 1.299 1.325l1.313 1.666c.206.261.308.392.387.534.111.2.187.42.224.646.026.16.026.326.026.659 0 .904 0 1.356-.143 1.714a2 2 0 0 1-1.113 1.113c-.358.143-.81.143-1.714.143H17c-1.886 0-2.828 0-3.414-.586C13 14.828 13 13.886 13 12V8zm7 8a3 3 0 1 1-6 0h-4a3 3 0 1 1-6 0" stroke="#fff" stroke-width="2"/></svg>
